X: 2
T: H\"alsa dem d\"arhemma
C: musik: Elith Worsing
N: Published 1922 by Wilhelm Hansen, Copenhagen
R: waltz
Z: John Chambers <jc@trillian.mit.edu>
M: 3/4
L: 1/4
K: G
[| "G"d2 e | "D()7"d2 e | "G"d2 c |     B2 z \
|  "C"g2 a | "G()7"g2 a | "C"g2 f |     e2 z \
|  "C"g2 e | "Cm"   d2 c | "G"B2 c |     d3   \
| "Em"d2 d | "Am"   c2 B | "D7"A3- |     A2 z |
|  "G"d2 e | "D()7"d2 e | "G"d2 c |     B2 z \
|  "C"g2 a | "G()7"g2 a | "C"g2 f |     e2 z \
|  "C"e2 f | "Cm"   g2 a | "G"b2 g | "E7"d2 B \
| "Am"d2 c | "D7"   B2 A | "G"G3-  |     G2 z |]
[| "G"g2 g | "(Bm)" f2 f | "C"e3   | "Am"c2 z \
| "D7"f2 f |        e2 e |  "G"d3- |     d2 z \
| "E7"e2 e |        d2 d | "Am"c3  |     A2 z \
| "D7"d2 d |        c2 c |  "G"B3- |     B2 z |
|  "G"g2 g | "(G)" b2 b | "Am"a3  |     e2 z \
| "D7"f2 f |        a2 a | "Em"g3- |     g2 z \
|  "G"g2 g |        d2 e |  "C"f3  |     e2 z \
| "D7"d2 [dc] | [e2B2] [fcA] | "G"[g3-B3-G3-] | [g2B2G2] z |]
